svg/gender.svg

<svg xmlns="http://www.w3.org/2000/svg" viewBox="0 0 32 32" enable-background="new 0 0 32 32"><path d="M 22 3 L 22 5 L 25.5625 5 L 22.1875 8.40625 C 20.984699 7.5038445 19.530991 7 18 7 C 16.13 7 14.3845 7.7405 13.0625 9.0625 C 11.7405 10.3845 11 12.13 11 14 C 11 15.87 11.7405 17.6145 13.0625 18.9375 C 13.9335 19.8085 14.969 20.433 16.125 20.75 C 16.239 20.663 16.36675 20.57175 16.46875 20.46875 C 16.90175 20.03575 17.18375 19.5115 17.34375 18.9375 C 16.25375 18.7975 15.25875 18.32125 14.46875 17.53125 C 13.52475 16.58725 13 15.335 13 14 C 13 12.665 13.52475 11.41375 14.46875 10.46875 C 15.41275 9.52375 16.665 9 18 9 C 19.335 9 20.58725 9.52475 21.53125 10.46875 C 22.47525 11.41275 23 12.665 23 14 C 23 14.865 22.75475 15.67125 22.34375 16.40625 C 22.43975 16.92225 22.5 17.464 22.5 18 C 22.5 18.498 22.458 18.98875 22.375 19.46875 C 22.576 19.30675 22.7525 19.1225 22.9375 18.9375 C 24.2595 17.6145 25 15.87 25 14 C 25 12.469009 24.496399 11.01585 23.59375 9.8125 L 27 6.4375 L 27 10 L 29 10 L 29 4 L 29 3 L 28 3 L 22 3 z M 15.875 11.25 C 15.761 11.337 15.63325 11.42825 15.53125 11.53125 C 15.09825 11.96425 14.81625 12.4885 14.65625 13.0625 C 15.74625 13.2025 16.74125 13.67875 17.53125 14.46875 C 18.47525 15.41275 19 16.665 19 18 C 19 19.335 18.47525 20.58625 17.53125 21.53125 C 16.58725 22.47625 15.335 23 14 23 C 12.665 23 11.41275 22.47525 10.46875 21.53125 C 9.52475 20.58725 9 19.335 9 18 C 9 17.135 9.24525 16.32875 9.65625 15.59375 C 9.55925 15.07775 9.5 14.536 9.5 14 C 9.5 13.502 9.542 13.01125 9.625 12.53125 C 9.424 12.69325 9.2475 12.8775 9.0625 13.0625 C 7.7405 14.3855 7 16.13 7 18 C 7 19.530991 7.5036015 20.98415 8.40625 22.1875 L 6.71875 23.875 L 4.71875 21.875 L 3.28125 23.28125 L 5.28125 25.28125 L 3.28125 27.28125 L 4.71875 28.71875 L 6.71875 26.71875 L 8.71875 28.71875 L 10.125 27.28125 L 8.125 25.28125 L 9.8125 23.59375 C 11.01656 24.499598 12.46624 25 14 25 C 15.87 25 17.6155 24.2595 18.9375 22.9375 C 20.2595 21.6155 21 19.87 21 18 C 21 16.13 20.2595 14.3855 18.9375 13.0625 C 18.0665 12.1915 17.031 11.567 15.875 11.25 z" color="#000" overflow="visible" enable-background="accumulate"/></svg>

<svg xmlns="http://www.w3.org/2000/svg" viewBox="0 0 32 32"><path style="text-indent:0;text-align:start;line-height:normal;text-transform:none;block-progression:tb;-inkscape-font-specification:Bitstream Vera Sans" d="M22 3v2h3.563l-3.375 3.406C20.985 7.504 19.53 7 18 7c-1.87 0-3.616.74-4.938 2.063C11.742 10.383 11 12.13 11 14s.74 3.614 2.063 4.938c.87.87 1.906 1.495 3.062 1.812.114-.087.242-.178.344-.28.432-.434.714-.958.874-1.532-1.09-.14-2.085-.617-2.875-1.407C13.524 16.588 13 15.336 13 14s.525-2.586 1.47-3.53C15.412 9.523 16.664 9 18 9s2.587.525 3.53 1.47c.945.943 1.47 2.195 1.47 3.53 0 .865-.245 1.67-.656 2.406.096.516.156 1.058.156 1.594 0 .498-.042.99-.125 1.47.2-.163.378-.348.563-.532C24.26 17.614 25 15.87 25 14c0-1.53-.504-2.984-1.406-4.188L27 6.438V10h2V3h-7zm-6.125 8.25c-.114.087-.242.178-.344.28-.432.434-.714.96-.874 1.533 1.09.14 2.085.616 2.875 1.406.945.943 1.47 2.195 1.47 3.53s-.525 2.586-1.47 3.53C16.588 22.477 15.336 23 14 23s-2.587-.525-3.53-1.47C9.524 20.588 9 19.336 9 18c0-.865.245-1.67.656-2.406C9.56 15.078 9.5 14.536 9.5 14c0-.498.042-.99.125-1.47-.2.163-.377.348-.563.533C7.742 14.384 7 16.13 7 18c0 1.53.504 2.984 1.406 4.188L6.72 23.875l-2-2-1.44 1.406 2 2-2 2 1.44 1.44 2-2 2 2 1.405-1.44-2-2 1.688-1.686C11.017 24.5 12.466 25 14 25c1.87 0 3.616-.74 4.938-2.063C20.26 21.616 21 19.87 21 18s-.74-3.614-2.063-4.938c-.87-.87-1.906-1.495-3.062-1.812z" color="#000" overflow="visible" font-family="Bitstream Vera Sans"/></svg>
